X:1
T:Klage
T:Klage
T:L.V. Beethoven WoO 113
C:L.W. Beethoven
%%score 1 { ( 2 4 ) | ( 3 5 ) }
L:1/8
Q:1/4=30
M:2/4
K:C
V:1 treble nm="Voice"
V:2 treble nm="Piano"
V:4 treble 
V:3 bass 
V:5 bass 
V:1
 z2 |"^Langsam und sanft."[Q:1/4=30] z4 | z4 | z4 | z2 z (C/G/) | Gc A>G | F>G EE | EE D(^C/D/) | %8
w: ||||Dein _|Sil ber schien durch|Ei- chen grün, das|Küh- lung gab, auf _|
 A2- (A/F/)(F/E/) | (ED) z E | F2 z (c/>A/) | (G/F/) z z (G/e/) | (e/c/)(c/A/) (A/F/)(F/D/) | %13
w: mich _ _ her _|ab, _ o|Mond o _|Mond _ und _|lach _ te _ Ruh' _ mir _|
 (D/G)(F/4E/4) D>E | C2 z2 | z2 z z/ G/ || %16
w: fro _ hen _ Kna ben|zu.|Wenn|
[K:Eb][M:2/2]"^Langsam und Sehr Traurig"[Q:1/4=50] e2[Q:1/4=55] c2[Q:1/4=60] G2 E2[Q:1/4=51]"^.7"[Q:1/4=53]"^.3"[Q:1/4=56]"^.7"[Q:1/4=58]"^.3" | %17
w: jetzt dein Licht durch's|
[Q:1/4=60] D3{EDCD} E F2 z A | A2- (3(A_c)B A2 A2 | f2- (3f{e}d{c}B A2 (F>B) | B2 =B2 c2- (3(cB)F | %21
w: Fen ster bricht, lacht's|kei _ _ ne Ruh' mir|Jüng _ ling _ zu, sieht's _|mei- ne Wan _ _ ge|
 (F2 =E) z z2 (G>c) | c2- (3(c=B)d c3 E | D2 z2 z2 G2 | A2 D2 E2 G2 | A2 D2 E2 E2 | %26
w: blass, _ mein _|Au _ _ ge thrä- nen-|nass. Bald,|Lie- ber Freund, ach|bald be- scheint dein|
 (_D2 (3FE)D C2 C2 | C3 C C2 (CA) | (G2 F)E (ED)(C=B,) | C2 z2 z2 c2 | (c3 A) A2 z2 | G4- G3 =B, | %32
w: Sil _ _ ber- schein den|Lei- chen strein, der _|mei _ ne A _ sche _|birgt, des|Jüng _ lings|A- * sche|
 C2 z2 z4 | z8 | z8 | z8 | z8 | z8 | z8 | z8 | z8 | z8 |] %42
w: birgt.||||||||||
V:2
 x!p! C/G/ | (Gc A>G) | (F>G E)(^D/E/ | A)(^C/D/ G)(B/c/ | f/d/B/F/ E)(C/G/ | Gc A>G | F>G E)(.E | %7
!<(! .[B,DE].[A,CE]!<)!!>(! .[A,D])(^C/D/!>)! | A2-) (A/F/)(F/E/) | (E D2)!<(! (E | %10
 F!<)!!p!D G)!p!(c/>A/) | (G/F/D G)(G/e/) | (e/c/)(c/A/) (A/F/)(F/D/) | (D/GF/4E/4 D>E | %14
"^Rit." C/)!pp!G,[G,G]/- ([G,G]/G/!>(!F/B/!>)! | c/G/) z/ G/- G/C/!>(!B,/F/!>)! || %16
[K:Eb][M:2/2] (3[G,CE][G,CE][G,CE] (3z [G,CE][G,CE] (3z [G,CE][G,CE] (3z [G,CE][G,CE] | %17
 (3z [A,DF][A,DF] (3z [A,DF][A,DF] (3z [A,DF][A,DF] (3z [A,DF][A,DF] | %18
!>(! (3z [A,B,DF][A,B,DF]!>)! (3z [A,DF][A,DF] (3z [A,DF][A,DF] (3z [A,DFA][A,DFA] | %19
!>(! (3z [A,B,DFA][A,B,DFA] (3z [A,B,DFA][A,B,DFA] (3z!>)! [A,B,DFA][A,B,DFA] (3z [B,DF][B,DF] | %20
 (3z [B,E]G (3z DA (3z CG (3z =B,F | %21
 (3z [G,B,F][G,B,F] (3z [G,B,=E][G,B,E] (3[G,B,E][G,B,E][G,B,E] (3[G,B,E][G,B,E][G,B,E] | %22
 (3z [F,CF][F,CF] (3[F,CF][F,CF][F,CF] (3z [G,CE][G,CE] (3[=A,CE][A,CE][A,CE] | %23
 [=B,D]2 z2 z2!mf!!<(! ([CG]2 | [=B,FA]2!<)!!p! [B,D]2 [CE]2!mf!!<(! G>A | %25
 [FA]2!<)!!p! [=B,D]2 [CE]2) [E,E]2 | ([E,_D]2 [B,D]2 [A,C]2) C2 | [G,B,C]4 [F,A,C]2 z2 | %28
 z2 [CE]2 z2 [F,=B,]2 | z2 (.C2 .[Cc]2 .[Cc]2) | z2 (.[Aa]2 .[Aa]2 .[Aa]2) | %31
 z2 (.[Gg]2 z2 .[Gg]2) | z2 (.[Gg]2 z2 .[cc']2) | z2 (.[Dd]2 z2 .[Gg]2) | z2 (.[Ee]2 z2 .[Cc]2) | %35
 z2 (.[G,G]2 z2 .!fermata![G,G]2) | C2 ([Ac]2 [B_d]2 [_D=EG]2 | [CFA]2 [B,G]2 [A,CB]2 [A,=B,D]2) | %38
 [A,=B,D]8 | [G,CE]2 z2 z4 | [CE]2 z2 z4 | !fermata![CE]2 z2 z4 |] %42
V:3
 x2 | z G, CE, | D,G, G, z | [F,A,] z [F,B,][E,G,] | [D,G,]G,, z2 | z G, CE, | D,G, G, z | %7
 [^G,,E,][A,,E,] [F,,F,] z | F,,^C,/D,/ A,>G, | z ([^F,A,] [=F,G,][E,G,] | [D,A,]G, E,[C,,C,] | %11
 [D,,D,][F,,F,] [E,,E,]) z | z[K:treble] E/F/ z/ D/G,/B,/ |[K:bass] [F,G,]([E,G,] F,[G,,G,] | %14
 C,)(G,, E,,[D,,G,,D,] | [C,,G,,C,]G,, E,,[D,,G,,D,]) ||[K:Eb][M:2/2] ([C,,G,,C,]2 E,,2 G,,2 C,2) | %17
 ([C,,C,]2 [F,,F,]2 [D,,D,]2 [_C,,_C,]2) | ([B,,,B,,]2 [F,,F,]2 [D,,D,]2 [_C,,_C,]2) | %19
 ([B,,,B,,]2 [D,,D,]2 [F,,F,]2 [A,,A,]2) | ([G,,G,]2 [F,A,]2 [E,G,]2 [D,G,]2 | %21
 _D,2) ([_D,,D,]2 [C,,C,]2 [B,,,B,,]2 | [=A,,,=A,,]2 [_A,,,_A,,]2 [G,,,G,,]2 [^F,,,^F,,]2 | %23
 [G,,,G,,]2) G,,2 G,,2 ([G,,E,]2 | [G,,D,]2 [G,,F,]2 [G,,E,]2 [G,,C,]2 | %25
 [G,,=B,,]2 [G,,F,]2 [G,,E,]2) z2 | (B,,2 E,2) E,2 z2 | [=E,,C,]4 [F,,D,]2 z2 | G,,2 z2 G,,2 z2 | %29
 A,,2 z2 z4 | [F,,A,,C,F,]6 z2 |"^Ten." [G,,C,E,]4"^Ten." [G,,D,F,]4 | [C,E,]2 z2 [A,,C,E,]2 z2 | %33
 [A,,C,D,F,]2 z2 [G,,=B,,D,F,]2 z2 | [A,,C,E,]2 z2 [^F,,C,D,]2 z2 | [G,,C,D,]2 z2 [G,,=B,,D,]2 z2 | %36
 [C,,C,]2 [C,G,]2 [C,=E,]2 [C,B,]2 | [C,A,]2 [C,=E,]2 [C,F,]2 [C,F,]2 | [C,F,]8 | [C,E,]2 z2 z4 | %40
 [C,,G,,]2 z2 z4 | !fermata![C,,G,,]2 z2 z4 |] %42
V:4
 x2 | x E2 A,- | A,D E^D/E/ | x4 | x4 | z E2 A, | A,D EE | x4 | x4 | z C B,C | CB, CE | %11
 A,[G,B,] [G,C] x | x4 | x/ B,/C A,B, | x3 B, | [C_E] x/ G,/- G,F, ||[K:Eb][M:2/2] x8 | x8 | x8 | %19
 x8 | x8 | x8 | x8 | x8 | x6 E2 | x8 | x8 | x8 | x8 | x8 | x8 | x8 | x8 | x8 | x8 | x8 | x8 | x8 | %38
 x8 | x8 | x8 | x8 |] %42
V:5
 x2 | x C,2 C,- | C,B,, C, x | x4 | x4 | x C,2 C,- | C,B,, C, x | x4 | x4 | x4 | x4 | x4 | %12
 x[K:treble] x3 |[K:bass] x4 | x4 | x4 ||[K:Eb][M:2/2] x8 | x8 | x8 | x8 | x8 | x8 | x8 | x8 | x8 | %25
 x8 | G,,4 A,,2 x2 | x8 | x8 | x8 | x8 | x8 | x8 | x8 | x8 | x8 | x8 | x8 | x8 | x8 | x8 | x8 |] %42

